!!!SOCIAL_FUNCTION:	war songs
!!!PDT:	1909
!!!OTL: No_132_Scalp_Dance.krn
!!!REG: Great_Lakes
!!!LANG: Non-Tone
!!!LING_GROUP: Algonquin
**kern
*staff1
=1-
*clefF4
*k[]
*M2/4
4A\
8.A\L
16d\Jk
=2
2d\
=3
4d\
8.c\L
16A\Jk
=4
2A\
=5
4d\
8.d\L
16c\Jk
=6
2c\
=7
4c\
8.A\L
16c\Jk
=8
2c\
=9
8c\L
8d\J
8d\L
8d\J
=10||
*M3/4
4.c\
8A\
4A\
=11||
*M2/4
4A\
8.E\L
16A\Jk
=12
2A\
=13
4A\
8.A\L
16d\Jk
=14
2d\
=15
4d\
8.c\L
16A\Jk
=16
2A\
=17
4d\
8.d\L
16c\Jk
=18
2c\
=19
4c\
8.A\L
16c\Jk
=20
2c\
=21
8c\L
8d\J
8d\L
8d\J
=22||
*M3/4
4.c\
8A\
4A\
=23||
*M2/4
4A\
8.E\L
16A\Jk
=24
2A\
=25
4A\
8.E\L
16A\Jk
=26
2A\
==
*-
